src/images/header__menu-account-button.svg

<svg width="100" height="32" viewBox="0 0 100 32" fill="none" xmlns="http://www.w3.org/2000/svg">
<rect width="100" height="32" rx="16" fill="#F5F5F5"/>
<path d="M23.8762 21H22.2455L25.9095 10.8182H27.6844L31.3485 21H29.7178L26.8392 12.6676H26.7597L23.8762 21ZM24.1496 17.0128H29.4394V18.3054H24.1496V17.0128ZM32.6995 21V13.3636H34.186V16.5653H34.9019L37.4225 13.3636H39.262L36.3039 17.0774L39.2968 21H37.4523L35.1505 17.9474H34.186V21H32.6995ZM40.4514 21V13.3636H41.9379V16.5653H42.6539L45.1744 13.3636H47.0139L44.0558 17.0774L47.0487 21H45.2043L42.9024 17.9474H41.9379V21H40.4514ZM50.4257 21.169C49.9418 21.169 49.5043 21.0795 49.1132 20.9006C48.7221 20.7183 48.4122 20.4548 48.1835 20.1101C47.9581 19.7654 47.8454 19.3428 47.8454 18.8423C47.8454 18.4115 47.9283 18.0568 48.094 17.7784C48.2597 17.5 48.4835 17.2796 48.7652 17.1172C49.0469 16.9548 49.3618 16.8321 49.7098 16.7493C50.0578 16.6664 50.4124 16.6035 50.7737 16.5604C51.2311 16.5073 51.6023 16.4643 51.8873 16.4311C52.1724 16.3946 52.3795 16.3366 52.5088 16.2571C52.6381 16.1776 52.7027 16.0483 52.7027 15.8693V15.8345C52.7027 15.4003 52.58 15.0639 52.3348 14.8253C52.0928 14.5866 51.7316 14.4673 51.251 14.4673C50.7505 14.4673 50.3561 14.5784 50.0677 14.8004C49.7827 15.0192 49.5855 15.2628 49.4761 15.5312L48.0791 15.2131C48.2448 14.7491 48.4868 14.3745 48.805 14.0895C49.1265 13.8011 49.496 13.5923 49.9136 13.4631C50.3312 13.3305 50.7704 13.2642 51.2311 13.2642C51.536 13.2642 51.8592 13.3007 52.2006 13.3736C52.5452 13.4432 52.8667 13.5724 53.165 13.7614C53.4666 13.9503 53.7136 14.2204 53.9058 14.5717C54.098 14.9197 54.1942 15.3722 54.1942 15.929V21H52.7425V19.956H52.6828C52.5867 20.1482 52.4425 20.3371 52.2503 20.5227C52.058 20.7083 51.8111 20.8625 51.5095 20.9851C51.2079 21.1077 50.8466 21.169 50.4257 21.169ZM50.7488 19.9759C51.1598 19.9759 51.5112 19.8946 51.8028 19.7322C52.0978 19.5698 52.3215 19.3577 52.474 19.0959C52.6298 18.8307 52.7077 18.5473 52.7077 18.2457V17.2614C52.6546 17.3144 52.5519 17.3641 52.3994 17.4105C52.2503 17.4536 52.0796 17.4917 51.8873 17.5249C51.6951 17.5547 51.5078 17.5829 51.3256 17.6094C51.1433 17.6326 50.9908 17.6525 50.8682 17.669C50.5798 17.7055 50.3163 17.7668 50.0777 17.853C49.8424 17.9392 49.6534 18.0634 49.5109 18.2259C49.3717 18.3849 49.3021 18.5971 49.3021 18.8622C49.3021 19.2301 49.438 19.5085 49.7098 19.6974C49.9816 19.883 50.3279 19.9759 50.7488 19.9759ZM56.8403 23.8636C56.6182 23.8636 56.416 23.8454 56.2338 23.8089C56.0515 23.7758 55.9156 23.7393 55.8261 23.6996L56.184 22.4815C56.4558 22.5545 56.6978 22.5859 56.9099 22.576C57.122 22.5661 57.3093 22.4865 57.4717 22.3374C57.6374 22.1882 57.7832 21.9446 57.9092 21.6065L58.0931 21.0994L55.2991 13.3636H56.89L58.824 19.2898H58.9035L60.8374 13.3636H62.4333L59.2863 22.0192C59.1405 22.4169 58.9549 22.7533 58.7295 23.0284C58.5041 23.3068 58.2356 23.5156 57.9241 23.6548C57.6125 23.794 57.2513 23.8636 56.8403 23.8636ZM69.0058 16.5405V17.8281H64.8694V16.5405H69.0058ZM65.287 13.3636V21H63.8303V13.3636H65.287ZM70.0448 13.3636V21H68.5931V13.3636H70.0448ZM71.0864 14.6463V13.3636H77.5296V14.6463H75.0388V21H73.5871V14.6463H71.0864Z" fill="black"/>
</svg>

<svg width="100" height="32" fill="none" xmlns="http://www.w3.org/2000/svg"><rect width="100" height="32" rx="16" fill="#F5F5F5"/><path d="M23.876 21h-1.63l3.664-10.182h1.774L31.35 21h-1.631l-2.879-8.332h-.08L23.877 21zm.274-3.987h5.29v1.292h-5.29v-1.292zM32.7 21v-7.636h1.486v3.201h.716l2.52-3.201h1.84l-2.958 3.713L39.297 21h-1.845l-2.301-3.053h-.965V21H32.7zm7.751 0v-7.636h1.487v3.201h.716l2.52-3.201h1.84l-2.958 3.713L47.049 21h-1.845l-2.302-3.053h-.964V21H40.45zm9.975.169a3.12 3.12 0 0 1-1.313-.268 2.211 2.211 0 0 1-.93-.79c-.225-.346-.338-.768-.338-1.269 0-.43.083-.785.249-1.064.166-.278.39-.498.671-.66.282-.163.597-.286.945-.369a9.383 9.383 0 0 1 1.064-.189l1.113-.129c.285-.036.492-.094.622-.174.13-.08.194-.209.194-.388v-.034c0-.435-.123-.771-.368-1.01-.242-.238-.603-.358-1.084-.358-.5 0-.895.111-1.183.333-.285.22-.482.463-.592.731l-1.397-.318c.166-.464.408-.838.726-1.123a2.942 2.942 0 0 1 1.109-.627 4.328 4.328 0 0 1 1.317-.199c.305 0 .628.037.97.11.344.07.666.198.964.387.302.19.549.46.74.81.193.349.29.801.29 1.358V21h-1.453v-1.044h-.06c-.095.192-.24.381-.432.567-.192.185-.439.34-.74.462-.302.123-.663.184-1.084.184zm.323-1.193c.41 0 .762-.081 1.054-.244.295-.162.519-.374.671-.636a1.65 1.65 0 0 0 .234-.85v-.985c-.053.053-.156.103-.309.15-.149.043-.32.08-.512.114-.192.03-.38.058-.561.084l-.458.06a3.685 3.685 0 0 0-.79.184c-.236.086-.425.21-.567.373-.14.159-.209.371-.209.636 0 .368.136.647.408.835.272.186.618.279 1.039.279zm6.091 3.888c-.222 0-.424-.019-.606-.055a1.912 1.912 0 0 1-.408-.11l.358-1.218a2.4 2.4 0 0 0 .726.095.87.87 0 0 0 .562-.239c.165-.149.311-.392.437-.73l.184-.508-2.794-7.735h1.591l1.934 5.926h.08l1.933-5.926h1.596l-3.147 8.655a3.452 3.452 0 0 1-.556 1.01 2.163 2.163 0 0 1-.806.626c-.312.139-.673.209-1.084.209zm12.166-7.323v1.287h-4.137v-1.287h4.137zm-3.719-3.177V21H63.83v-7.636h1.457zm4.758 0V21h-1.452v-7.636h1.452zm1.041 1.282v-1.282h6.444v1.282h-2.491V21h-1.452v-6.354h-2.5z" fill="#000"/></svg>
